svg/emoji_u1f489.svg

<svg width="128" height="128" viewBox="0 0 128 128" fill="none" xmlns="http://www.w3.org/2000/svg">
<path d="M106.88 22.9701L103.91 20.0001L117.85 6.06012C118.54 5.37012 119.12 5.13012 119.69 5.12012L123.65 5.32012C123.97 5.34012 124.12 5.74012 123.89 5.97012L106.88 22.9701Z" fill="#848484" style="fill:#848484;fill:color(display-p3 0.5176 0.5176 0.5176);fill-opacity:1;"/>
<path d="M30.8266 120.33C32.0528 119.104 27.6112 112.674 20.906 105.969C14.2007 99.2636 7.77099 94.822 6.54476 96.0483C5.31852 97.2745 9.76014 103.704 16.4654 110.409C23.1706 117.115 29.6003 121.556 30.8266 120.33Z" fill="#B9E4EA" style="fill:#B9E4EA;fill:color(display-p3 0.7255 0.8941 0.9176);fill-opacity:1;"/>
<path d="M16.58 110.3C11.4 105.12 5.71998 97.5403 6.54998 96.0503C6.54998 96.0503 4.80998 97.7903 4.52998 98.0703C2.38998 100.21 6.99998 106.47 13.7 113.17C20.4 119.87 26.66 124.48 28.8 122.34C29.04 122.1 30.82 120.32 30.82 120.32C29.77 121.39 21.76 115.48 16.58 110.3Z" fill="#82AEC0" style="fill:#82AEC0;fill:color(display-p3 0.5098 0.6824 0.7529);fill-opacity:1;"/>
<path d="M26.9899 114.45C26.9899 114.45 24.6699 114.02 18.7699 108.11C12.8699 102.21 12.4299 99.89 12.4299 99.89L35.0499 77.27L49.6099 91.83L26.9899 114.45Z" fill="#B9E4EA" style="fill:#B9E4EA;fill:color(display-p3 0.7255 0.8941 0.9176);fill-opacity:1;"/>
<path d="M62.58 88.5903L105.93 45.2403C106.45 44.7203 106.45 43.8703 105.93 43.3503L83.52 20.9603C83 20.4403 82.15 20.4403 81.63 20.9603L38.32 64.2703C38.32 64.2703 35.84 65.1303 32.3 62.9903C30.28 61.7603 28.66 60.9103 26.87 62.7003C26.87 62.7003 26.11 65.6903 43.52 83.1003C60.93 100.51 64.32 99.8003 64.32 99.8003C65.34 98.7803 64.89 97.0703 63.69 94.4003C62.23 91.1803 62.58 88.5903 62.58 88.5903Z" fill="#B9E4EA" style="fill:#B9E4EA;fill:color(display-p3 0.7255 0.8941 0.9176);fill-opacity:1;"/>
<path d="M106.51 20.3702C104.95 18.8102 102.43 18.8102 100.88 20.3702L91.8199 29.4302L97.4499 35.0602L106.51 26.0002C108.07 24.4502 108.07 21.9202 106.51 20.3702Z" fill="#00937A" style="fill:#00937A;fill:color(display-p3 0.0000 0.5765 0.4784);fill-opacity:1;"/>
<path d="M94.06 30.7401L92.66 29.3401L99.96 22.0401C100.35 21.6501 100.98 21.6501 101.36 22.0401C101.75 22.4301 101.75 23.0601 101.36 23.4401L94.06 30.7401Z" fill="#12D8B7" style="fill:#12D8B7;fill:color(display-p3 0.0706 0.8471 0.7176);fill-opacity:1;"/>
<path d="M55.9 85.54C55.9 85.54 53.58 85.11 47.68 79.2C41.78 73.29 41.34 70.98 41.34 70.98L58.86 53.46L73.42 68.02L55.9 85.54Z" fill="#82AEC0" style="fill:#82AEC0;fill:color(display-p3 0.5098 0.6824 0.7529);fill-opacity:1;"/>
<path d="M77.5599 64.0801C77.5599 64.0801 75.2399 63.6501 69.3399 57.7401C63.4399 51.8301 62.9999 49.5201 62.9999 49.5201L82.44 30.0801L97 44.6401L77.5599 64.0801Z" fill="#78C3E1" style="fill:#78C3E1;fill:color(display-p3 0.4711 0.7637 0.8833);fill-opacity:1;"/>
<path d="M63.49 100.67C63.82 100.28 64.14 99.89 64.51 99.54C64.26 99.6 63.99 99.57 63.75 99.48C63.5 99.39 63.29 99.25 63.09 99.08C61.66 97.89 60.23 96.7 58.82 95.49C56.62 93.6 54.45 91.68 52.31 89.72C49.65 87.29 47.04 84.8 44.49 82.25C41.95 79.71 39.47 77.11 37.04 74.47C35.1 72.36 33.19 70.21 31.32 68.04C30.64 67.25 29.96 66.45 29.29 65.65C28.69 64.93 27.85 64.17 27.56 63.28C27.45 62.93 27.41 62.56 27.51 62.21C26.35 63 25.44 64.14 24.44 65.13C24.12 65.45 24.08 65.95 24.36 66.32C25.82 68.26 30.86 74.62 41.68 85.44C52.48 96.24 58.7 101.14 60.6 102.57C60.96 102.84 61.46 102.8 61.78 102.49C62.14 102.13 62.5 101.77 62.86 101.41C63.08 101.15 63.29 100.91 63.49 100.67Z" fill="#82AEC0" style="fill:#82AEC0;fill:color(display-p3 0.5098 0.6824 0.7529);fill-opacity:1;"/>
<path d="M83.5199 25.8103C85.3599 27.6503 82.8299 29.8203 82.8299 29.8203C82.8299 29.8203 48.8899 63.5003 45.2199 67.1403C44.0799 68.2803 42.8599 69.8303 41.1999 70.0603C38.6999 70.3103 36.2599 68.7703 34.8099 66.8103C34.6199 66.5503 34.5999 66.1703 34.9899 66.2403C38.6499 67.0203 39.8399 66.0803 42.2199 63.4503C44.1499 61.5403 76.9499 28.9503 79.5899 26.3303C80.6199 25.3103 82.0299 24.3103 83.5199 25.8103Z" fill="white" style="fill:white;fill-opacity:1;"/>
<path d="M81.45 66.7699L60.17 45.6299L54.64 51.1399L75.85 72.3699L81.45 66.7699Z" fill="#455A64" style="fill:#455A64;fill:color(display-p3 0.2706 0.3529 0.3922);fill-opacity:1;"/>
<path d="M59.83 52.6501L61.68 50.7801C62.7 49.7601 64.35 49.7601 65.37 50.7801L77.99 63.3201C79.02 64.3501 79 66.0301 77.97 67.0601L76.12 68.9101C75.09 69.9401 73.42 69.9401 72.4 68.9101L59.82 56.3401C58.81 55.3201 58.81 53.6701 59.83 52.6501Z" fill="#212121" style="fill:#212121;fill:color(display-p3 0.1294 0.1294 0.1294);fill-opacity:1;"/>
</svg>

<?xml version="1.0" encoding="utf-8"?>
<!-- Generator: Adobe Illustrator 25.2.3, SVG Export Plug-In . SVG Version: 6.00 Build 0)  -->
<svg version="1.1" id="Layer_4" xmlns="http://www.w3.org/2000/svg" xmlns:xlink="http://www.w3.org/1999/xlink" x="0px" y="0px"
	 viewBox="0 0 128 128" style="enable-background:new 0 0 128 128;" xml:space="preserve">
<g>
	<g>
		<g>
			<path style="fill:#848484;" d="M106.88,22.97L103.91,20l13.94-13.94c0.69-0.69,1.27-0.93,1.84-0.94l3.96,0.2
				c0.32,0.02,0.47,0.42,0.24,0.65L106.88,22.97z"/>
		</g>
		
			<ellipse transform="matrix(0.7071 -0.7071 0.7071 0.7071 -71.0311 44.9034)" style="fill:#B9E4EA;" cx="18.69" cy="108.19" rx="3.14" ry="17.17"/>
		<path style="fill:#82AEC0;" d="M16.58,110.3c-5.18-5.18-10.86-12.76-10.03-14.25c0,0-1.74,1.74-2.02,2.02
			c-2.14,2.14,2.47,8.4,9.17,15.1s12.96,11.31,15.1,9.17c0.24-0.24,2.02-2.02,2.02-2.02C29.77,121.39,21.76,115.48,16.58,110.3z"/>
		<path style="fill:#B9E4EA;" d="M26.99,114.45c0,0-2.32-0.43-8.22-6.34c-5.9-5.9-6.34-8.22-6.34-8.22l22.62-22.62l14.56,14.56
			L26.99,114.45z"/>
		<path style="fill:#B9E4EA;" d="M62.58,88.59l43.35-43.35c0.52-0.52,0.52-1.37,0-1.89L83.52,20.96c-0.52-0.52-1.37-0.52-1.89,0
			L38.32,64.27c0,0-2.48,0.86-6.02-1.28c-2.02-1.23-3.64-2.08-5.43-0.29c0,0-0.76,2.99,16.65,20.4s20.8,16.7,20.8,16.7
			c1.02-1.02,0.57-2.73-0.63-5.4C62.23,91.18,62.58,88.59,62.58,88.59z"/>
		<path style="fill:#00937A;" d="M106.51,20.37L106.51,20.37c-1.56-1.56-4.08-1.56-5.63,0l-9.06,9.06l5.63,5.63l9.06-9.06
			C108.07,24.45,108.07,21.92,106.51,20.37z"/>
		<g>
			<path style="fill:#12D8B7;" d="M94.06,30.74l-1.4-1.4l7.3-7.3c0.39-0.39,1.02-0.39,1.4,0l0,0c0.39,0.39,0.39,1.02,0,1.4
				L94.06,30.74z"/>
		</g>
		<path style="fill:#82AEC0;" d="M55.9,85.54c0,0-2.32-0.43-8.22-6.34s-6.34-8.22-6.34-8.22l17.52-17.52l14.56,14.56L55.9,85.54z"/>
		<path style="fill:#82AEC0;" d="M63.49,100.67c0.33-0.39,0.65-0.78,1.02-1.13c-0.25,0.06-0.52,0.03-0.76-0.06
			c-0.25-0.09-0.46-0.23-0.66-0.4c-1.43-1.19-2.86-2.38-4.27-3.59c-2.2-1.89-4.37-3.81-6.51-5.77c-2.66-2.43-5.27-4.92-7.82-7.47
			c-2.54-2.54-5.02-5.14-7.45-7.78c-1.94-2.11-3.85-4.26-5.72-6.43c-0.68-0.79-1.36-1.59-2.03-2.39c-0.6-0.72-1.44-1.48-1.73-2.37
			c-0.11-0.35-0.15-0.72-0.05-1.07c-1.16,0.79-2.07,1.93-3.07,2.92c-0.32,0.32-0.36,0.82-0.08,1.19c1.46,1.94,6.5,8.3,17.32,19.12
			c10.8,10.8,17.02,15.7,18.92,17.13c0.36,0.27,0.86,0.23,1.18-0.08c0.36-0.36,0.72-0.72,1.08-1.08
			C63.08,101.15,63.29,100.91,63.49,100.67z"/>
	</g>
	<path style="fill:#FFFFFF;" d="M83.52,25.81c1.84,1.84-0.69,4.01-0.69,4.01S48.89,63.5,45.22,67.14c-1.14,1.14-2.36,2.69-4.02,2.92
		c-2.5,0.25-4.94-1.29-6.39-3.25c-0.19-0.26-0.21-0.64,0.18-0.57c3.66,0.78,4.85-0.16,7.23-2.79c1.93-1.91,34.73-34.5,37.37-37.12
		C80.62,25.31,82.03,24.31,83.52,25.81z"/>
	<polygon style="fill:#455A64;" points="81.45,66.77 60.17,45.63 54.64,51.14 75.85,72.37 	"/>
	<path style="fill:#212121;" d="M59.83,52.65l1.85-1.87c1.02-1.02,2.67-1.02,3.69,0l12.62,12.54c1.03,1.03,1.01,2.71-0.02,3.74
		l-1.85,1.85c-1.03,1.03-2.7,1.03-3.72,0L59.82,56.34C58.81,55.32,58.81,53.67,59.83,52.65z"/>
</g>
</svg>
